icons/screen-normal-16.svg

<svg width="16" height="16" viewBox="0 0 16 16" xmlns="http://www.w3.org/2000/svg">
  <path fill-rule="evenodd" clip-rule="evenodd" d="M5.25 1C5.66421 1 6 1.33579 6 1.75V4.25C6 5.2165 5.2165 6 4.25 6H1.75C1.33579 6 1 5.66421 1 5.25C1 4.83579 1.33579 4.5 1.75 4.5H4.25C4.38807 4.5 4.5 4.38807 4.5 4.25V1.75C4.5 1.33579 4.83579 1 5.25 1ZM10.75 1C11.1642 1 11.5 1.33579 11.5 1.75V4.25C11.5 4.38807 11.6119 4.5 11.75 4.5H14.25C14.6642 4.5 15 4.83579 15 5.25C15 5.66421 14.6642 6 14.25 6H11.75C10.7835 6 10 5.2165 10 4.25V1.75C10 1.33579 10.3358 1 10.75 1ZM1 10.75C1 10.3358 1.33579 10 1.75 10H4.25C5.2165 10 6 10.7835 6 11.75V14.25C6 14.6642 5.66421 15 5.25 15C4.83579 15 4.5 14.6642 4.5 14.25V11.75C4.5 11.6119 4.38807 11.5 4.25 11.5H1.75C1.33579 11.5 1 11.1642 1 10.75ZM10 11.75C10 10.7835 10.7835 10 11.75 10H14.25C14.6642 10 15 10.3358 15 10.75C15 11.1642 14.6642 11.5 14.25 11.5H11.75C11.6119 11.5 11.5 11.6119 11.5 11.75V14.25C11.5 14.6642 11.1642 15 10.75 15C10.3358 15 10 14.6642 10 14.25V11.75Z"/>
</svg>

<svg xmlns="http://www.w3.org/2000/svg" width="16" height="16" viewBox="0 0 16 16"><path fill-rule="evenodd" d="M5.25 1a.75.75 0 01.75.75v2.5A1.75 1.75 0 014.25 6h-2.5a.75.75 0 010-1.5h2.5a.25.25 0 00.25-.25v-2.5A.75.75 0 015.25 1zm5.5 0a.75.75 0 01.75.75v2.5c0 .138.112.25.25.25h2.5a.75.75 0 010 1.5h-2.5A1.75 1.75 0 0110 4.25v-2.5a.75.75 0 01.75-.75zM1 10.75a.75.75 0 01.75-.75h2.5c.966 0 1.75.784 1.75 1.75v2.5a.75.75 0 01-1.5 0v-2.5a.25.25 0 00-.25-.25h-2.5a.75.75 0 01-.75-.75zm9 1c0-.966.784-1.75 1.75-1.75h2.5a.75.75 0 010 1.5h-2.5a.25.25 0 00-.25.25v2.5a.75.75 0 01-1.5 0v-2.5z"/></svg>
